Papirus/64x64/apps/remnote.svg

<svg width="64" height="64" version="1.1" xmlns="http://www.w3.org/2000/svg">
 <rect x="4" y="5" width="56" height="56" ry="12.972175" style="opacity:.2"/>
 <rect x="4" y="4" width="56" height="56" ry="12.972175" style="fill:#e4e4e4"/>
 <path d="m29.61564 13.000002c-0.915296 0-1.374896-0.0024-1.724599 0.174945-0.307547 0.155437-0.555331 0.404525-0.712052 0.709574-0.178114 0.346751-0.178989 0.799488-0.178989 1.707418v10.238126l-7.294249-7.237959c-0.647326-0.642337-0.969155-0.961812-1.342426-1.082122-0.32831-0.105913-0.680961-0.105913-1.009251 0-0.373277 0.120312-0.698349 0.439785-1.345728 1.082122l-3.374059 3.346841c-0.646912 0.641903-0.969691 0.96476-1.090923 1.334817-0.106688 0.325548-0.1067 0.675593 0 1.001165 0.121212 0.370093 0.444011 0.68966 1.090923 1.331596l7.293583 7.393476h-10.311598c-0.915327 0-1.374972 0.046-1.724582 0.222607-0.307523 0.155455-0.555356 0.401244-0.712046 0.706306-0.178134 0.346702-0.179644 0.802774-0.179644 1.710687v4.533606c0 0.907854 0.0019 1.363963 0.179644 1.710643 0.156696 0.305051 0.404523 0.550896 0.712046 0.706294 0.34961 0.176678 0.809255 0.409857 1.724582 0.409857h15.116295l5.173738-7.0776c0.550497-0.899516 1.117868-1.455511 2.092138-1.684931 1.017729 0.06757 1.514125 0.93213 2.091958 1.684931l5.173795 7.0776h15.119549c0.915429 0 1.371599-0.233545 1.721304-0.409857 0.307545-0.155398 0.558626-0.401243 0.715291-0.706294 0.178116-0.34668 0.17966-0.802789 0.17966-1.710643v-4.533606c0-0.907913-0.0019-1.363985-0.17966-1.710687-0.156665-0.305062-0.407746-0.55085-0.715291-0.706306-0.349705-0.176839-0.805875-0.222607-1.721304-0.222607h-10.314908l7.293583-7.393476c0.64684-0.641936 0.97295-0.96152 1.094217-1.331596 0.106738-0.325572 0.106738-0.675602 0-1.001165-0.121262-0.370057-0.447377-0.692914-1.094217-1.334817l-3.370765-3.346841c-0.647398-0.642357-0.97243-0.961812-1.345728-1.082122-0.328437-0.105913-0.680996-0.105913-1.00925 0-0.373292 0.120312-0.69838 0.439765-1.345721 1.082122l-7.290956 7.237959v-10.238126c0-0.90793-0.0012-1.360667-0.178989-1.707418-0.156721-0.305049-0.407762-0.554137-0.71529-0.709574-0.349705-0.176683-0.806065-0.174945-1.721359-0.174945zm9.648556 29.999999h-14.531629l-4.595652 5.849699c-1.009578 1.335661-1.514245 2.00389-1.502483 2.562741 0.01125 0.486536 0.237633 0.944238 0.623843 1.244159 0.443895 0.344709 1.286024 0.343401 2.969041 0.343401h19.542075c1.683034 0 2.525224 0.0016 2.969036-0.343401 0.386159-0.299921 0.616788-0.757623 0.627143-1.244159 0.012-0.558851-0.492891-1.22708-1.502483-2.562741z" style="fill-rule:evenodd;opacity:.2;stop-color:#000000"/>
 <path d="m29.61564 12.000001c-0.915296 0-1.374896-0.0024-1.724599 0.174945-0.307547 0.155437-0.555331 0.404525-0.712052 0.709574-0.178114 0.346751-0.178989 0.799488-0.178989 1.707418v10.238126l-7.294249-7.237959c-0.647326-0.642337-0.969155-0.961812-1.342426-1.082122-0.32831-0.105913-0.680961-0.105913-1.009251 0-0.373277 0.120312-0.698349 0.439785-1.345728 1.082122l-3.374059 3.346841c-0.646912 0.641903-0.969691 0.96476-1.090923 1.334817-0.106688 0.325548-0.1067 0.675593 0 1.001165 0.121212 0.370093 0.444011 0.68966 1.090923 1.331596l7.293583 7.393476h-10.311598c-0.915327 0-1.374972 0.046001-1.724582 0.222607-0.307523 0.155455-0.555356 0.401244-0.712046 0.706306-0.178134 0.346702-0.179644 0.802774-0.179644 1.710687v4.533606c0 0.907854 0.0019 1.363963 0.179644 1.710643 0.156696 0.305051 0.404523 0.550896 0.712046 0.706294 0.34961 0.176678 0.809255 0.409857 1.724582 0.409857h15.116295l5.173738-7.0776c0.550497-0.899516 1.117868-1.455511 2.092138-1.684931 1.017729 0.06757 1.514125 0.93213 2.091958 1.684931l5.173795 7.0776h15.119549c0.915429 0 1.371599-0.233545 1.721304-0.409857 0.307545-0.155398 0.558626-0.401243 0.715291-0.706294 0.178116-0.34668 0.17966-0.802789 0.17966-1.710643v-4.533606c0-0.907913-0.0019-1.363985-0.17966-1.710687-0.156665-0.305062-0.407746-0.55085-0.715291-0.706306-0.349705-0.176839-0.805875-0.222607-1.721304-0.222607h-10.314908l7.293583-7.393476c0.64684-0.641936 0.97295-0.96152 1.094217-1.331596 0.106738-0.325572 0.106738-0.675602 0-1.001165-0.121262-0.370057-0.447377-0.692914-1.094217-1.334817l-3.370765-3.346841c-0.647398-0.642357-0.97243-0.961812-1.345728-1.082122-0.328437-0.105913-0.680996-0.105913-1.00925 0-0.373292 0.120312-0.69838 0.439765-1.345721 1.082122l-7.290956 7.237959v-10.238126c0-0.90793-0.0012-1.360667-0.178989-1.707418-0.156721-0.305049-0.407762-0.554137-0.71529-0.709574-0.349705-0.176683-0.806065-0.174945-1.721359-0.174945zm9.648556 29.999999h-14.531629l-4.595652 5.849699c-1.009578 1.335661-1.514245 2.00389-1.502483 2.562741 0.01125 0.486536 0.237633 0.944238 0.623843 1.244159 0.443895 0.344709 1.286024 0.343401 2.969041 0.343401h19.542075c1.683034 0 2.525224 0.0016 2.969036-0.343401 0.386159-0.299921 0.616788-0.757623 0.627143-1.244159 0.012-0.558851-0.492891-1.22708-1.502483-2.562741z" style="fill-rule:evenodd;fill:#506cf7;stop-color:#000000"/>
 <path d="m29.615234 12c-0.915296 0-1.374906-0.001564-1.724609 0.175781-0.307547 0.155437-0.554216 0.403936-0.710937 0.708985-0.178114 0.346751-0.179688 0.799101-0.179688 1.707031v1c0-0.90793 0.001574-1.36028 0.179688-1.707031 0.156721-0.305049 0.40339-0.553548 0.710937-0.708985 0.349703-0.177345 0.809313-0.175781 1.724609-0.175781h4.769532c0.915294 0 1.370998-9.02e-4 1.720703 0.175781 0.307528 0.155437 0.558123 0.403936 0.714843 0.708985 0.17779 0.346751 0.179688 0.799101 0.179688 1.707031v-1c0-0.90793-0.001898-1.36028-0.179688-1.707031-0.15672-0.305049-0.407315-0.553548-0.714843-0.708985-0.349705-0.176683-0.805409-0.175781-1.720703-0.175781h-4.769532zm-11.755859 4.429688c-0.170238 0-0.341714 0.027121-0.505859 0.080078-0.373277 0.120312-0.698324 0.439694-1.345704 1.082031l-3.373046 3.347656c-0.646912 0.641903-0.970565 0.963927-1.091797 1.333985-0.10649 0.324943-0.106106 0.674942 0 1 0.121232-0.370058 0.444885-0.692082 1.091797-1.333985l3.373046-3.347656c0.64738-0.642337 0.972427-0.961719 1.345704-1.082031 0.32829-0.105913 0.681455-0.105913 1.009765 0 0.373271 0.12031 0.694471 0.439694 1.341797 1.082031l7.294922 7.238281v-1l-7.294922-7.238281c-0.647326-0.642337-0.968526-0.961721-1.341797-1.082031-0.164155-0.052957-0.333668-0.080078-0.503906-0.080078zm28.28125 0c-0.170226 0-0.339779 0.027121-0.503906 0.080078-0.373292 0.120312-0.698362 0.439674-1.345703 1.082031l-7.291016 7.238281v1l7.291016-7.238281c0.647341-0.642357 0.972411-0.961719 1.345703-1.082031 0.328254-0.105913 0.681328-0.105913 1.009765 0 0.373298 0.12031 0.698305 0.439674 1.345704 1.082031l3.371093 3.347656c0.64684 0.641903 0.972488 0.963928 1.09375 1.333985 0.106144-0.325058 0.10654-0.675042 0-1-0.121262-0.370057-0.44691-0.692082-1.09375-1.333985l-3.371093-3.347656c-0.647399-0.642357-0.972406-0.961721-1.345704-1.082031-0.164218-0.052957-0.335633-0.080078-0.505859-0.080078zm-36.523438 15.570312c-0.915327 0-1.3749994 0.04605-1.7246094 0.222656-0.307523 0.155455-0.5562006 0.40197-0.7128906 0.707032-0.178134 0.346702-0.1796875 0.801071-0.1796875 1.708984v1c0-0.907913 0.0015535-1.362282 0.1796875-1.708984 0.15669-0.305062 0.4053676-0.551577 0.7128906-0.707032 0.34961-0.176607 0.8092824-0.222656 1.7246094-0.222656h10.310546l-0.986328-1h-9.3242185zm35.4375 0-0.986329 1h10.314453c0.915429 0 1.372952 0.045817 1.722657 0.222656 0.307545 0.155456 0.558179 0.40197 0.714843 0.707032 0.17776 0.346701 0.179688 0.801071 0.179688 1.708984v-1c0-0.907913-0.001928-1.362283-0.179688-1.708984-0.156665-0.305062-0.407298-0.551576-0.714843-0.707032-0.349705-0.176839-0.807227-0.222656-1.722657-0.222656h-9.328124zm-19.591797 10-0.730469 1h14.53125l-0.730469-1h-13.070312zm13.800781 1 4.599609 5.849609c0.740948 0.980252 1.204041 1.598214 1.396485 2.080079 0.060536-0.165179 0.101648-0.338075 0.105468-0.517579 0.012-0.558851-0.492361-1.226839-1.501953-2.5625l-3.8125-4.849609h-0.787109zm-14.53125 0h-0.785156l-3.810547 4.849609c-1.009578 1.335661-1.513715 2.003649-1.501953 2.5625 0.00415 0.179504 0.045528 0.3524 0.105468 0.517579 0.192474-0.481865 0.655548-1.099827 1.396485-2.080079l4.595703-5.849609z" style="fill-rule:evenodd;fill:#ffffff;opacity:.2;stop-color:#000000"/>
 <path d="M 16.972656 4 C 9.7860715 4 4 9.7860715 4 16.972656 L 4 17.972656 C 4 10.786071 9.7860715 5 16.972656 5 L 47.027344 5 C 54.213929 5 60 10.786071 60 17.972656 L 60 16.972656 C 60 9.7860715 54.213929 4 47.027344 4 L 16.972656 4 z " style="fill:#ffffff;opacity:.2"/>
</svg>

<svg xmlns="http://www.w3.org/2000/svg" width="64" height="64" version="1.1">
 <rect style="opacity:0.2" width="56" height="56" x="4" y="5" rx="13" ry="13"/>
 <rect style="fill:#e4e4e4" width="56" height="56" x="4" y="4" rx="13" ry="13"/>
 <path style="fill:#ffffff;opacity:0.2" d="M 17 4 C 9.798 4 4 9.798 4 17 L 4 18 C 4 10.798 9.798 5 17 5 L 47 5 C 54.202 5 60 10.798 60 18 L 60 17 C 60 9.798 54.202 4 47 4 L 17 4 z"/>
 <path style="opacity:0.2" d="M 29.62,13 C 28.7,13 28.24,13 27.89,13.18 27.58,13.33 27.34,13.58 27.18,13.88 27,14.23 27,14.68 27,15.59 V 25.83 L 19.71,18.59 C 19.06,17.95 18.74,17.63 18.36,17.51 18.04,17.4 17.68,17.4 17.35,17.51 16.98,17.63 16.66,17.95 16.01,18.59 L 12.63,21.94 C 11.99,22.58 11.66,22.9 11.54,23.27 11.44,23.6 11.44,23.95 11.54,24.27 11.66,24.64 11.99,24.96 12.63,25.61 L 19.93,33 H 9.62 C 8.7,33 8.24,33.05 7.89,33.22 7.58,33.38 7.34,33.62 7.18,33.93 7,34.28 7,34.73 7,35.64 V 40.17 C 7,41.08 7,41.54 7.18,41.88 7.34,42.19 7.58,42.44 7.89,42.59 8.24,42.77 8.7,43 9.62,43 H 24.73 L 29.91,35.92 C 30.46,35.02 31.02,34.47 32,34.24 33.02,34.3 33.51,35.17 34.09,35.92 L 39.26,43 H 54.38 C 55.3,43 55.76,42.77 56.1,42.59 56.41,42.44 56.66,42.19 56.82,41.88 57,41.54 57,41.08 57,40.17 V 35.64 C 57,34.73 57,34.28 56.82,33.93 56.66,33.62 56.41,33.38 56.1,33.22 55.76,33.05 55.3,33 54.38,33 H 44.07 L 51.36,25.61 C 52.01,24.96 52.34,24.64 52.46,24.27 52.56,23.95 52.56,23.6 52.46,23.27 52.34,22.9 52.01,22.58 51.36,21.94 L 47.99,18.59 C 47.34,17.95 47.02,17.63 46.65,17.51 46.32,17.4 45.97,17.4 45.64,17.51 45.26,17.63 44.94,17.95 44.29,18.59 L 37,25.83 V 15.59 C 37,14.68 37,14.23 36.82,13.88 36.66,13.58 36.41,13.33 36.11,13.18 35.76,13 35.3,13 34.38,13 Z M 39.26,43 H 24.73 L 20.14,48.85 C 19.13,50.19 18.62,50.85 18.63,51.41 18.65,51.9 18.87,52.36 19.26,52.66 19.7,53 20.54,53 22.23,53 H 41.77 C 43.45,53 44.3,53 44.74,52.66 45.12,52.36 45.35,51.9 45.37,51.41 45.38,50.85 44.87,50.19 43.86,48.85 Z"/>
 <path style="fill:#506cf7" d="M 29.62,12 C 28.7,12 28.24,12 27.89,12.18 27.58,12.33 27.34,12.58 27.18,12.88 27,13.23 27,13.68 27,14.59 V 24.83 L 19.71,17.59 C 19.06,16.95 18.74,16.63 18.36,16.51 18.04,16.4 17.68,16.4 17.35,16.51 16.98,16.63 16.66,16.95 16.01,17.59 L 12.63,20.94 C 11.99,21.58 11.66,21.9 11.54,22.27 11.44,22.6 11.44,22.95 11.54,23.27 11.66,23.64 11.99,23.96 12.63,24.61 L 19.93,32 H 9.62 C 8.7,32 8.24,32.05 7.89,32.22 7.58,32.38 7.34,32.62 7.18,32.93 7,33.28 7,33.73 7,34.64 V 39.17 C 7,40.08 7,40.54 7.18,40.88 7.34,41.19 7.58,41.44 7.89,41.59 8.24,41.77 8.7,42 9.62,42 H 24.73 L 29.91,34.92 C 30.46,34.02 31.02,33.47 32,33.24 33.02,33.3 33.51,34.17 34.09,34.92 L 39.26,42 H 54.38 C 55.3,42 55.76,41.77 56.1,41.59 56.41,41.44 56.66,41.19 56.82,40.88 57,40.54 57,40.08 57,39.17 V 34.64 C 57,33.73 57,33.28 56.82,32.93 56.66,32.62 56.41,32.38 56.1,32.22 55.76,32.05 55.3,32 54.38,32 H 44.07 L 51.36,24.61 C 52.01,23.96 52.34,23.64 52.46,23.27 52.56,22.95 52.56,22.6 52.46,22.27 52.34,21.9 52.01,21.58 51.36,20.94 L 47.99,17.59 C 47.34,16.95 47.02,16.63 46.65,16.51 46.32,16.4 45.97,16.4 45.64,16.51 45.26,16.63 44.94,16.95 44.29,17.59 L 37,24.83 V 14.59 C 37,13.68 37,13.23 36.82,12.88 36.66,12.58 36.41,12.33 36.11,12.18 35.76,12 35.3,12 34.38,12 Z M 39.26,42 H 24.73 L 20.14,47.85 C 19.13,49.19 18.62,49.85 18.63,50.41 18.65,50.9 18.87,51.36 19.26,51.66 19.7,52 20.54,52 22.23,52 H 41.77 C 43.45,52 44.3,52 44.74,51.66 45.12,51.36 45.35,50.9 45.37,50.41 45.38,49.85 44.87,49.19 43.86,47.85 Z"/>
 <path style="fill:#ffffff;opacity:0.2" d="M 29.619 12 C 28.699 12 28.241 12 27.891 12.18 C 27.581 12.33 27.34 12.581 27.18 12.881 C 27 13.231 27 13.68 27 14.59 L 27 15.59 C 27 14.68 27 14.231 27.18 13.881 C 27.34 13.581 27.581 13.33 27.891 13.18 C 28.241 13 28.699 13 29.619 13 L 34.381 13 C 35.301 13 35.759 13 36.109 13.18 C 36.409 13.33 36.66 13.581 36.82 13.881 C 37 14.231 37 14.68 37 15.59 L 37 14.59 C 37 13.68 37 13.231 36.82 12.881 C 36.66 12.581 36.409 12.33 36.109 12.18 C 35.759 12 35.301 12 34.381 12 L 29.619 12 z M 17.859 16.428 C 17.688 16.428 17.515 16.455 17.35 16.51 C 16.98 16.63 16.66 16.95 16.01 17.59 L 12.631 20.939 C 11.991 21.579 11.659 21.9 11.539 22.27 C 11.439 22.6 11.439 22.95 11.539 23.27 C 11.659 22.9 11.991 22.579 12.631 21.939 L 16.01 18.59 C 16.66 17.95 16.98 17.63 17.35 17.51 C 17.68 17.4 18.039 17.4 18.359 17.51 C 18.739 17.63 19.061 17.95 19.711 18.59 L 27 25.83 L 27 24.83 L 19.711 17.59 C 19.061 16.95 18.739 16.63 18.359 16.51 C 18.199 16.455 18.031 16.428 17.859 16.428 z M 46.145 16.428 C 45.975 16.428 45.806 16.455 45.641 16.51 C 45.261 16.63 44.939 16.95 44.289 17.59 L 37 24.83 L 37 25.83 L 44.289 18.59 C 44.939 17.95 45.261 17.63 45.641 17.51 C 45.971 17.4 46.32 17.4 46.65 17.51 C 47.02 17.63 47.34 17.95 47.99 18.59 L 51.359 21.939 C 52.009 22.579 52.341 22.9 52.461 23.27 C 52.561 22.95 52.561 22.6 52.461 22.27 C 52.341 21.9 52.009 21.579 51.359 20.939 L 47.99 17.59 C 47.34 16.95 47.02 16.63 46.65 16.51 C 46.485 16.455 46.315 16.428 46.145 16.428 z M 9.6191 32 C 8.6991 32 8.2406 32.051 7.8906 32.221 C 7.5806 32.381 7.3397 32.62 7.1797 32.93 C 6.9997 33.28 7 33.731 7 34.641 L 7 35.641 C 7 34.731 6.9997 34.28 7.1797 33.93 C 7.3397 33.62 7.5806 33.381 7.8906 33.221 C 8.2406 33.051 8.6991 33 9.6191 33 L 19.93 33 L 18.941 32 L 9.6191 32 z M 45.057 32 L 44.07 33 L 54.381 33 C 55.301 33 55.76 33.051 56.1 33.221 C 56.41 33.381 56.66 33.62 56.82 33.93 C 57 34.28 57 34.731 57 35.641 L 57 34.641 C 57 33.731 57 33.28 56.82 32.93 C 56.66 32.62 56.41 32.381 56.1 32.221 C 55.76 32.051 55.301 32 54.381 32 L 45.057 32 z M 25.463 42 L 24.73 43 L 39.26 43 L 38.529 42 L 25.463 42 z M 39.26 43 L 43.859 48.85 C 44.597 49.828 45.063 50.441 45.26 50.92 C 45.319 50.757 45.362 50.587 45.369 50.41 C 45.379 49.85 44.869 49.19 43.859 47.85 L 40.047 43 L 39.26 43 z M 24.73 43 L 23.945 43 L 20.141 47.85 C 19.131 49.19 18.621 49.85 18.631 50.41 C 18.638 50.589 18.679 50.759 18.738 50.924 C 18.934 50.444 19.401 49.831 20.141 48.85 L 24.73 43 z"/>
</svg>
